X: 1
T:Inisheer
R:waltz
D:Buttons and Bows, First Month of Summer
Z:added by Alf Warnock - alf0@rogers.com - http://members.rogers.com/alf0
M:3/4
L:1/8
K:G
D GA|:"G"B3A Bd|"Bm"B3A Bd|"C"E3B AB|"D"D3 E GA|
"G"B3A Bd|"Em"B3A (3Bcd|"C"G3B "D7"(3AGF|[1"G"G3 D EA:|[2 "G" G3 A Bd|]
|"Em"e3f ed|"Bm"B3A Bd|"C"e>f ed "D"(3Bcd|"Em"e3 f gf|
"Em"e3f ed|"Bm"B3A Bd|"C"E3B "D7"(3AGF|"G"G3A Bd|
"Em"e3f ed|"Bm"B3A Bd| "G"gf ed Bd|"Em"e4 Bd|
"Em"e3f ed|"Bm"B3A Bd|"D7"D3B (3AGF|"G"G4 D2||